X:135
T:The Old Bush
R: reel
M: 4/4
L: 1/8
K: Dmix
S:Taylor Stirm
|: A2GA cAA2 | d^cde fde=c | A2GA cAA2 | dfed cAdc |
A2GA cAA2 | d^cde f3g | afge fde^c |[1 dfed cAdc :|[2 dfed cAG2 |]
|: egg2 ed^cd | efge c3d | egg2 afge | dfed cAA2 |
egg2 agg2 | fed^c defg | afge fde^c |[1 dfed cAG2 :|[2 dfed cAdc |]

%%newpage
%%scale .7
%%staffsep 35

